X: 21824
T: The ROSE TREE
O: Irish air
Q: "Slow."
%R: reel, march, air
B: W. Hamilton "Universal Tune-Book" Vol. 2 Glasgow 1846 p.182 #4
S: http://s3-eu-west-1.amazonaws.com/itma.dl.printmaterial/book_pdfs/hamiltonvol2web.pdf
Z: 2016 John Chambers <jc:trillian.mit.edu>
M: 2/4
L: 1/16
K: Bb
% - - - - - - - - - - - - - - - - - - - - - - - - -
(dc) |\
B2G2 F2D2 | F4 (F2GA) | B4 (dc)Bc | d2c2 c2(dc) |\
B2G2F2D2 | F4 F2(GA) | B4 (dc)Bc | d2B2B2 :|
|: c2 |\
d2c2d2e2 | f4 (e2d2) | c2g2g2^f2 | g2c2 Hc2 Hf/(e/d/c/) |\
(cB).A.G (GF).E.D | F4 F2(GA) | B4 (c2Bc) | d2B2B2 :|
% - - - - - - - - - - - - - - - - - - - - - - - - -

%%sep 1 1 500
%%sep 1 1 500

